!!!OTL: Le Vin herbé (The Drugged Wine), Secular Oratorio for Twelve Solo Voices, Strings and Piano
!!!OMV: Part II, Scene 3: À trois jours de là (Three Days Away)
!!!example: 557
!!!work: Mai-23
**kern	**kern	**kern	**dynam	**kern	**kern	**dynam	**kern	**kern	**dynam	**kern	**kern	**kern	**text	**text	**dynam
*part6	*part5	*part5	*part5	*part4	*part4	*part4	*part3	*part3	*part3	*part2	*part2	*part1	*part1	*part1	*part1
*staff10	*staff9	*staff8	*	*staff7	*staff6	*	*staff5	*staff4	*	*staff3	*staff2	*staff1	*staff1	*staff1	*
*I"Cb.	*I"Vc.	*	*	*I"Vle.	*	*	*I"Vln.	*	*	*I"Pf.	*	*I"Tristan	*	*	*
*I'Db.	*I'Vc.	*	*	*I'Vla.	*	*	*I'Vln. I	*	*	*I'Pno.	*	*I'T.	*	*	*
!!pagebreak:original
*clefF4	*clefF4	*clefF4	*	*clefC3	*clefC3	*	*clefG2	*clefG2	*	*clefF4	*clefG2	*clefGv2	*	*	*
*Trd0c0	*	*	*	*	*	*	*	*	*	*	*	*Trd0c0	*	*	*
*k[]	*k[]	*k[]	*	*k[]	*k[]	*	*k[]	*k[]	*	*k[]	*k[]	*k[]	*	*	*
*C:	*C:	*C:	*	*C:	*C:	*	*C:	*C:	*	*C:	*C:	*C:	*	*	*
*M4/4	*M4/4	*M4/4	*	*M4/4	*M4/4	*	*M4/4	*M4/4	*	*M4/4	*M4/4	*M4/4	*	*	*
=98	=	=	=	=	=	=	=	=	=	=	=	=	=	=	=
!	!	!LO:TX:i:t=dolce	!	!	!	!	!	!LO:TX:t=[quarter]=120	!	!	!	!	!	!	!
!LO:TX:i:t=dolce	!	!LO:TX:t=pizz.	!	!	!LO:TX:i:t=  subito	!	!	!LO:TX:i:t=  subito	!	!	!	!	!	!	!
!LO:TX:t=pizz.	!	!LO:TX:i:t=  marcato	!	!	!LO:TX:i:t=  subito	!	!	!LO:TX:i:t=  subito	!	!	!	!LO:TX:t=[quarter]=120	!	!	!
2D	2D	[1GG	mf	2.b-X	2.cc#X	p	2.gg	2.eee-X	p	2r	[1G [1B-X [1c#X [1e-X	1r	.	.	.
*	*	*	*	*	*	*	*	*	*	*8ba	*	*	*	*	*
2r	2r	.	.	.	.	.	.	.	.	[4DDD' 4DD	.	.	.	.	.
.	.	.	.	[4B-X	[4c#X	.	[4g	[4ee-X	.	4r	.	.	.	.	.
=99	=99	=99	=99	=99	=99	=99	=99	=99	=99	=99	=99	=99	=99	=99	=99
2D	2D	1GG]	.	2B-]	2c#]	.	2g]	2ee-]	.	2r	1G_ 1B-_ 1c#_ 1e-_	4r	.	.	.
!	!	!	!	!	!	!	!	!	!	!	!	!LO:TX:i:t=sempre	!	!	!
.	.	.	.	.	.	.	.	.	.	.	.	(<4G	et	Und	f
2r	2r	.	.	[2b-X	[2cc#X	.	[2gg	[2eee-X	.	4DDD'_ 4DD	.	4G)	la	.	.
.	.	.	.	.	.	.	.	.	.	4r	.	4A	no-	der	.
=100	=100	=100	=100	=100	=100	=100	=100	=100	=100	=100	=100	=100	=100	=100	=100
2D	2D	1GG-X	.	4b-]	4cc#]	.	4gg]	4eee-]	.	2r	4G] 4B-] 4c#] 4e-]	4B-X	-bles-	A-	.
.	.	.	.	2.dd-X	2.ddn	.	2.bb-X	2.ggg-X	.	.	2.B-X 2.d-X 2.en 2.g-X	4G	-se	-del	.
2r	2r	.	.	.	.	.	.	.	.	4DDD'_ 4DD	.	4A	de	sei-	.
.	.	.	.	.	.	.	.	.	.	4r	.	4B-	son	-nes	.
=101	=101	=101	=101	=101	=101	=101	=101	=101	=101	=101	=101	=101	=101	=101	=101
*	*	*	*	*	*	*	*	*	*	*	*	*^	*	*	*
2D	2D	[1EE-X	.	2.ee-X	2.ff#X	.	2.ccc	2.aaa-X	.	2r	[1cn [1e-X [1g-X [1a-X	(>1c	2c	coeur	Her-	.
2r	2r	.	.	.	.	.	.	.	.	4DDD'_ 4DD	.	.	4c	.	-zens	.
.	.	.	.	[4E-X	[4F#X	.	[4c	[4a-X	.	4r	.	.	4c	.	hat	.
=102	=102	=102	=102	=102	=102	=102	=102	=102	=102	=102	=102	=102	=102	=102	=102	=102
2D	2D	1EE-]	.	2E-]	2F#]	.	2c]	2a-]	.	2r	1c] 1e-] 1g-] 1a-_	4c)	4c	.	ihn	.
.	.	.	.	.	.	.	.	.	.	.	.	4c	4c	l'a	da-	.
2r	2r	.	.	2e-X	(>2f#X	.	2cc	[2aa-X	.	4DDD'_ 4DD	.	4c	4c	in-	-zu	.
*	*	*	*	*	*	*	*	*	*	*	*	*v	*v	*	*	*
*	*	*	*	*	*	*	*	*	*	*X8ba	*	*	*	*	*
*	*	*	*	*	*	*	*	*	*	*	*	*^	*	*	*
.	.	.	.	.	.	.	.	.	.	4r	.	4c	4c	-cli-	ge-	.
*	*	*	*	*	*	*	*	*	*	*	*	*v	*v	*	*	*
=103	=103	=103	=103	=103	=103	=103	=103	=103	=103	=103	=103	=103	=103	=103	=103
!!pagebreak:original
2A-X	2AA-X	(<[1EE-X	.	2.f-X	2.a-X)	.	2.b--	2.aa-]	.	2r	[1B-- [1f-X 1a-_	2.e-X	-né	-führt,	.
2r	2r	.	.	.	.	.	.	.	.	[4AAA-X' 4AA-X	.	.	.	.	.
.	.	.	.	[4F-X	[4A-X	.	[4B--	[4a-X	.	4r	.	4c	á	die	.
=104	=104	=104	=104	=104	=104	=104	=104	=104	=104	=104	=104	=104	=104	=104	=104
2A-X	2AA-X	2EE-]	.	2F-]	2A-]	.	2B]	2a-]	.	2r	1B_ 1f-_ 1a-_	4c	com-	Din-	.
.	.	.	.	.	.	.	.	.	.	.	.	[4c~	-pre-	-ge	.
2r	2r	[2DD-X	.	[2f-X	[2a-X	.	[2b--	[2aa-X	.	4AAA-X'_ 4AA-X	.	6c]	.	.	.
.	.	.	.	.	.	.	.	.	.	.	.	6c	-dre	zu	.
.	.	.	.	.	.	.	.	.	.	4r	.	.	.	.	.
.	.	.	.	.	.	.	.	.	.	.	.	6c	les	ver-	.
=105	=105	=105	=105	=105	=105	=105	=105	=105	=105	=105	=105	=105	=105	=105	=105
2A-X	2AA-X	2DD-])	.	4f-]	4a-]	.	4b]	4aa-X]	.	2r	1B] 1f-] 1a-]	2c	cho-	-ste-	.
.	.	.	.	2.F-X	2.A-X	.	2.B--	2.a-X	.	.	.	.	.	.	.
2r	2r	4r	.	.	.	.	.	.	.	4AAA-X'_ 4AA-X	.	4c	-ses	-hen,	.
.	.	(>4D-X	.	.	.	.	.	.	.	4r	.	4r	.	.	.
=106	=106	=106	=106	=106	=106	=106	=106	=106	=106	=106	=106	=106	=106	=106	=106
2G#X	2GG#X	[1Dn	.	2.Dn	2.An	.	2.f	2.g#X	.	2r	[1An [1fn [1g#X	4r	.	.	.
.	.	.	.	.	.	.	.	.	.	.	.	4B	qu'au-	wel-	.
2r	2r	.	.	.	.	.	.	.	.	4GGG#X'_ 4GG#X	.	4B	-tour	-che	.
.	.	.	.	[4d	[4an	.	[4ff	[4gg#X	.	4r	.	4B	de	die	.
=107	=107	=107	=107	=107	=107	=107	=107	=107	=107	=107	=107	=107	=107	=107	=107
*	*	*	*	*	*	*	*	*	*	*	*	*^	*	*	*
2G#X	2GG#X	1D_)	.	2d]	2a]	.	2ff]	2gg#]	.	2r	1A_ 1f_ 1g#_	2.B	2B	lui	Män-	.
2r	2r	.	.	[2D	[2A	.	[2f	[2g#X	.	4GGG#X'_ 4GG#X	.	.	4B	.	-ner,	.
.	.	.	.	.	.	.	.	.	.	4r	.	4B	4B	ses	die	.
*	*	*	*	*	*	*	*	*	*	*	*	*v	*v	*	*	*
==	==	==	==	==	==	==	==	==	==	==	==	==	==	==	==
*-	*-	*-	*-	*-	*-	*-	*-	*-	*-	*-	*-	*-	*-	*-	*-
!!!CDT: 1890/09/15-1974/11/21
!!!CBL: Geneva, Switzerland
!!!CDL: Naarden, Netherlands
!!!CNT: Swiss
!!!AGN: Stage; Theatrical
!!!MCN: Blum, Robert
!!!MDT: 1942/03/28
!!!MGN: Zurich Madrigal Choir
!!!MLC: Zürich, Switzerland
!!!MPD: 1942
!!!MPN:
!!!ODT: 1941
!!!PDT: 1943
!!!excerpt-start-measure: 98
!!!excerpt-end-measure: 107
!!!excerpt-start-time: 4:17
!!!excerpt-end-time: 4:28
!!!EEV: 2020/01/17
!!!system-decoration: s1[({(s2,s3)})][([({(s4,s5)})][({(s6,s7)})][({(s8,s9)})]s10)]
!!!RDF**kern: > = above
!!!RDF**kern: < = below
!!!ONB: Converted from MusicXML on 2020/01/17
